www/images/drag@2x.svg

<svg fill="none" height="54" viewBox="0 0 55 54" width="55" xmlns="http://www.w3.org/2000/svg"><path d="m34.65 20.8602h-.0935c-.3641-.0061-.7256.0619-1.0615.1998-.0366-.4429-.1888-.869-.442-1.2374-.2531-.3683-.5986-.6665-1.0031-.8656-.4046-.1991-.8546-.2926-1.3066-.2714-.4521.0212-.891.1564-1.2743.3926-.2597-.4372-.6442-.7902-1.1058-1.0154-.4617-.2251-.9804-.3127-1.4921-.2518-.5118.0608-.9942.2675-1.3877.5944-.3936.3269-.681.7598-.8269 1.2452-.4039-.1929-.8513-.2815-1.2998-.2574-.4484.0242-.8832.1603-1.2632.3955s-.6925.5617-.9081.9485c-.2156.3869-.3271.8214-.3239 1.2624v1.2204c-.5843.0804-1.1388.3034-1.6125.6487s-.8516.8018-1.099 1.3277c-.354.7855-.4895 1.6491-.3929 2.5029.0966.8537.4219 1.667.9429 2.3571l3.784 4.32v3.6612c0 .2148.0869.4209.2416.5728s.3646.2372.5834.2372h10.901c.2188 0 .4286-.0853.5833-.2372.1548-.1519.2417-.358.2417-.5728v-3.6882l2.0955-2.8944c.0998-.1371.1537-.3013.154-.4698v-7.5168c-.0014-.6876-.2788-1.3469-.7719-1.8351s-1.1623-.766-1.8626-.7731zm.979 9.8658-2.079 2.8944c-.0999.1371-.1537.3013-.154.4698v3.1698h-9.2675v-3.1698c.0033-.1977-.0671-.3898-.198-.54l-3.971-4.5252c-.3151-.4493-.5096-.9695-.5654-1.5123-.0557-.5428.029-1.0906.2464-1.5927.1138-.2468.2817-.4658.4919-.6413.2101-.1755.4572-.3032.7236-.3739v1.9764c.0044.1704.0645.3348.1715.469s.2551.231.4225.2762c.1781.0448.3662.0323.5365-.0357.1703-.0681.3139-.1881.4095-.3423.0799-.1284.1218-.2761.121-.4266v-2.8404-1.9764c0-.2628.1063-.5148.2956-.7007.1893-.1858.446-.2902.7136-.2902.2677 0 .5244.1044.7137.2902.1892.1859.2956.4379.2956.7007v1.215c0 .2148.0869.4209.2416.5728s.3646.2372.5834.2372.4286-.0853.5833-.2372c.1548-.1519.2417-.358.2417-.5728v-2.808c0-.2628.1063-.5148.2956-.7007.1893-.1858.446-.2902.7136-.2902.2677 0 .5244.1044.7137.2902.1892.1859.2956.4379.2956.7007v2.808c0 .2148.0869.4209.2416.5728s.3646.2372.5834.2372.4286-.0853.5833-.2372c.1548-.1519.2417-.358.2417-.5728v-1.917c0-.2628.1063-.5148.2956-.7007.1893-.1858.446-.2902.7136-.2902.2677 0 .5244.1044.7137.2902.1892.1859.2956.4379.2956.7007v2.997c0 .2148.0869.4209.2416.5728s.3646.2372.5834.2372.4286-.0853.5833-.2372c.1548-.1519.2417-.358.2417-.5728v-.7938s0 0 0-.0378c0-.2621.106-.5134.2948-.6988.1887-.1853.4447-.2894.7117-.2894h.121c.2669 0 .5229.1041.7117.2894.1887.1854.2948.4367.2948.6988z" fill="#000"/><path d="m35.629 30.726-2.079 2.8944c-.0999.1371-.1537.3013-.154.4698v3.1698h-9.2675v-3.1698c.0033-.1977-.0671-.3898-.198-.54l-3.971-4.5252c-.3151-.4493-.5096-.9695-.5654-1.5123-.0557-.5428.029-1.0906.2464-1.5927.1138-.2468.2817-.4658.4919-.6413.2101-.1755.4572-.3032.7236-.3739v1.9764c.0044.1704.0645.3348.1715.469s.2551.231.4225.2762c.1781.0448.3662.0323.5365-.0357.1703-.0681.3139-.1881.4095-.3423.0799-.1284.1218-.2761.121-.4266v-2.8404-1.9764c0-.2628.1063-.5148.2956-.7007.1893-.1858.446-.2902.7136-.2902.2677 0 .5244.1044.7137.2902.1892.1859.2956.4379.2956.7007v1.215c0 .2148.0869.4209.2416.5728s.3646.2372.5834.2372.4286-.0853.5833-.2372c.1548-.1519.2417-.358.2417-.5728v-2.808c0-.2628.1063-.5148.2956-.7007.1893-.1858.446-.2902.7136-.2902.2677 0 .5244.1044.7137.2902.1892.1859.2956.4379.2956.7007v2.808c0 .2148.0869.4209.2416.5728s.3646.2372.5834.2372.4286-.0853.5833-.2372c.1548-.1519.2417-.358.2417-.5728v-1.917c0-.2628.1063-.5148.2956-.7007.1893-.1858.446-.2902.7136-.2902.2677 0 .5244.1044.7137.2902.1892.1859.2956.4379.2956.7007v2.997c0 .2148.0869.4209.2416.5728s.3646.2372.5834.2372.4286-.0853.5833-.2372c.1548-.1519.2417-.358.2417-.5728v-.7938s0 0 0-.0378c0-.2621.106-.5134.2948-.6988.1887-.1853.4447-.2894.7117-.2894h.121c.2669 0 .5229.1041.7117.2894.1887.1854.2948.4367.2948.6988z" fill="#fff"/></svg>

<svg width="55" height="54" viewBox="0 0 55 54" fill="none" xmlns="http://www.w3.org/2000/svg">
<path d="M34.65 20.8602H34.5565C34.1924 20.8541 33.8309 20.9221 33.495 21.06C33.4584 20.6171 33.3062 20.191 33.053 19.8226C32.7999 19.4543 32.4544 19.1561 32.0499 18.957C31.6453 18.7579 31.1953 18.6644 30.7433 18.6856C30.2912 18.7068 29.8523 18.842 29.469 19.0782C29.2093 18.641 28.8248 18.288 28.3632 18.0628C27.9015 17.8377 27.3828 17.7501 26.8711 17.811C26.3593 17.8718 25.8769 18.0785 25.4834 18.4054C25.0898 18.7323 24.8024 19.1652 24.6565 19.6506C24.2526 19.4577 23.8052 19.3691 23.3567 19.3932C22.9083 19.4174 22.4735 19.5535 22.0935 19.7887C21.7135 20.0239 21.401 20.3504 21.1854 20.7372C20.9698 21.1241 20.8583 21.5586 20.8615 21.9996V23.22C20.2772 23.3004 19.7227 23.5234 19.249 23.8687C18.7753 24.214 18.3974 24.6705 18.15 25.1964C17.796 25.9819 17.6605 26.8455 17.7571 27.6993C17.8537 28.553 18.179 29.3663 18.7 30.0564L22.484 34.3764V38.0376C22.484 38.2524 22.5709 38.4585 22.7256 38.6104C22.8803 38.7623 23.0902 38.8476 23.309 38.8476H34.21C34.4288 38.8476 34.6386 38.7623 34.7933 38.6104C34.9481 38.4585 35.035 38.2524 35.035 38.0376V34.3494L37.1305 31.455C37.2303 31.3179 37.2842 31.1537 37.2845 30.9852V23.4684C37.2831 22.7808 37.0057 22.1215 36.5126 21.6333C36.0195 21.1451 35.3503 20.8673 34.65 20.8602ZM35.629 30.726L33.55 33.6204C33.4501 33.7575 33.3963 33.9217 33.396 34.0902V37.26H24.1285V34.0902C24.1318 33.8925 24.0614 33.7004 23.9305 33.5502L19.9595 29.025C19.6444 28.5757 19.4499 28.0555 19.3941 27.5127C19.3384 26.9699 19.4231 26.4221 19.6405 25.92C19.7543 25.6732 19.9222 25.4542 20.1324 25.2787C20.3425 25.1032 20.5896 24.9755 20.856 24.9048V26.8812C20.8604 27.0516 20.9205 27.216 21.0275 27.3502C21.1345 27.4844 21.2826 27.5812 21.45 27.6264C21.6281 27.6712 21.8162 27.6587 21.9865 27.5907C22.1568 27.5226 22.3004 27.4026 22.396 27.2484C22.4759 27.12 22.5178 26.9723 22.517 26.8218V23.9814V22.005C22.517 21.7422 22.6233 21.4902 22.8126 21.3043C23.0019 21.1185 23.2586 21.0141 23.5262 21.0141C23.7939 21.0141 24.0506 21.1185 24.2399 21.3043C24.4291 21.4902 24.5355 21.7422 24.5355 22.005V23.22C24.5355 23.4348 24.6224 23.6409 24.7771 23.7928C24.9318 23.9447 25.1417 24.03 25.3605 24.03C25.5793 24.03 25.7891 23.9447 25.9438 23.7928C26.0986 23.6409 26.1855 23.4348 26.1855 23.22V20.412C26.1855 20.1492 26.2918 19.8972 26.4811 19.7113C26.6704 19.5255 26.9271 19.4211 27.1947 19.4211C27.4624 19.4211 27.7191 19.5255 27.9084 19.7113C28.0976 19.8972 28.204 20.1492 28.204 20.412V23.22C28.204 23.4348 28.2909 23.6409 28.4456 23.7928C28.6003 23.9447 28.8102 24.03 29.029 24.03C29.2478 24.03 29.4576 23.9447 29.6123 23.7928C29.7671 23.6409 29.854 23.4348 29.854 23.22V21.303C29.854 21.0402 29.9603 20.7882 30.1496 20.6023C30.3389 20.4165 30.5956 20.3121 30.8632 20.3121C31.1309 20.3121 31.3876 20.4165 31.5769 20.6023C31.7661 20.7882 31.8725 21.0402 31.8725 21.303V24.3C31.8725 24.5148 31.9594 24.7209 32.1141 24.8728C32.2688 25.0247 32.4787 25.11 32.6975 25.11C32.9163 25.11 33.1261 25.0247 33.2808 24.8728C33.4356 24.7209 33.5225 24.5148 33.5225 24.3V23.5062C33.5225 23.5062 33.5225 23.5062 33.5225 23.4684C33.5225 23.2063 33.6285 22.955 33.8173 22.7696C34.006 22.5843 34.262 22.4802 34.529 22.4802H34.65C34.9169 22.4802 35.1729 22.5843 35.3617 22.7696C35.5504 22.955 35.6565 23.2063 35.6565 23.4684L35.629 30.726Z" fill="black"/>
<path d="M35.629 30.726L33.55 33.6204C33.4501 33.7575 33.3963 33.9217 33.396 34.0902V37.26H24.1285V34.0902C24.1318 33.8925 24.0614 33.7004 23.9305 33.5502L19.9595 29.025C19.6444 28.5757 19.4499 28.0555 19.3941 27.5127C19.3384 26.9699 19.4231 26.4221 19.6405 25.92C19.7543 25.6732 19.9222 25.4542 20.1324 25.2787C20.3425 25.1032 20.5896 24.9755 20.856 24.9048V26.8812C20.8604 27.0516 20.9205 27.216 21.0275 27.3502C21.1345 27.4844 21.2826 27.5812 21.45 27.6264C21.6281 27.6712 21.8162 27.6587 21.9865 27.5907C22.1568 27.5226 22.3004 27.4026 22.396 27.2484C22.4759 27.12 22.5178 26.9723 22.517 26.8218V23.9814V22.005C22.517 21.7422 22.6233 21.4902 22.8126 21.3043C23.0019 21.1185 23.2586 21.0141 23.5262 21.0141C23.7939 21.0141 24.0506 21.1185 24.2399 21.3043C24.4291 21.4902 24.5355 21.7422 24.5355 22.005V23.22C24.5355 23.4348 24.6224 23.6409 24.7771 23.7928C24.9318 23.9447 25.1417 24.03 25.3605 24.03C25.5793 24.03 25.7891 23.9447 25.9438 23.7928C26.0986 23.6409 26.1855 23.4348 26.1855 23.22V20.412C26.1855 20.1492 26.2918 19.8972 26.4811 19.7113C26.6704 19.5255 26.9271 19.4211 27.1947 19.4211C27.4624 19.4211 27.7191 19.5255 27.9084 19.7113C28.0976 19.8972 28.204 20.1492 28.204 20.412V23.22C28.204 23.4348 28.2909 23.6409 28.4456 23.7928C28.6003 23.9447 28.8102 24.03 29.029 24.03C29.2478 24.03 29.4576 23.9447 29.6123 23.7928C29.7671 23.6409 29.854 23.4348 29.854 23.22V21.303C29.854 21.0402 29.9603 20.7882 30.1496 20.6023C30.3389 20.4165 30.5956 20.3121 30.8632 20.3121C31.1309 20.3121 31.3876 20.4165 31.5769 20.6023C31.7661 20.7882 31.8725 21.0402 31.8725 21.303V24.3C31.8725 24.5148 31.9594 24.7209 32.1141 24.8728C32.2688 25.0247 32.4787 25.11 32.6975 25.11C32.9163 25.11 33.1261 25.0247 33.2808 24.8728C33.4356 24.7209 33.5225 24.5148 33.5225 24.3V23.5062C33.5225 23.5062 33.5225 23.5062 33.5225 23.4684C33.5225 23.2063 33.6285 22.955 33.8173 22.7696C34.006 22.5843 34.262 22.4802 34.529 22.4802H34.65C34.9169 22.4802 35.1729 22.5843 35.3617 22.7696C35.5504 22.955 35.6565 23.2063 35.6565 23.4684L35.629 30.726Z" fill="white"/>
</svg>
